!!!COM:	Martini, Johannes
!!!CDT:	~1440///-~1497//
!!!OTL:	Deus tuorum militum I
!!!AGN:	Motet
!!!SCT:	Mar2023
!!!SCA:	Mar2023
!!!voices:	3
**kern	**kern	**kern
*staff3	*staff2	*staff1
*Ivox	*Ivox	*Ivox
*I"Tenor	*I"Contra	*I"Superius
*I'T	*I'C	*I'S
*>[A,B]	*>[A,B]	*>[A,B]
*>A	*>A	*>A
*clefF4	*clefGv2	*clefG2
*k[]	*k[]	*k[]
*M2/1	*M2/1	*M2/1
*met(C)	*met(C)	*met(C)
!!section: Deus tuorum militum
!!!OMD: Deus tuorum militum
=1-	=1-	=1-
[0E	0B	[0e
=2	=2	=2
0E]	0c	0e]
=3	=3	=3
0D	1.d	0f
.	2c\	.
=4	=4	=4
1E	1.B	1.e
1G	.	.
.	4A/	4d/
.	4G/	4c/
=5	=5	=5
2.F\	2.A/	2.d/
4G\	4B\	4e/
2A\	2c\	2f/
2G\	2d\	[2g/
=6	=6	=6
2B\	2G/	2g/]
2c\	2F/	2a/
1d	2.D/	1b
.	4E/	.
=7	=7	=7
0c	1F	2a/
.	.	1cc
.	1C	.
.	.	4b\
.	.	4a/
=8	=8	=8
2B\	2E/	2g/
2A\	2F/	1a
1B	1E	.
.	.	2g#i/
=9	=9	=9
1A	2r	0a
.	1c	.
1r	.	.
.	2d\	.
=10	=10	=10
1c	1e	0r
1B	2d\	.
.	[2g\	.
=11	=11	=11
1A	2g\]	1r
.	4f#i\	.
.	4e\	.
1A	1f#i	1cc
=12	=12	=12
1G	1g	1b
2.A\	2.c\	1a
4B\	4d\	.
=13	=13	=13
2c\	2e\	1a
2d\	2f\	.
1B	1d	1g
=14	=14	=14
1.A	1c	2.a/
.	.	4b\
.	2F/	2.cc\
2B\	2G/	.
.	.	4b\
=15	=15	=15
1c	2.A/	4a/
.	.	4g/
.	.	1a
.	4B\	.
2F\	2c\	.
2G\	2B\	[2g/
=16	=16	=16
1B	2G/	2g/]
.	1d	4f#i/
.	.	4e/
1A	.	1f#i
.	2c\	.
=17	=17	=17
2.G\	1d	1g
4A\	.	.
2B\	2d\	1r
[2c\	[2e\	.
=18	=18	=18
2c\]	4e\]	2.g/
.	4c\	.
2B\	2d\	.
.	.	4a/
2G\	2e\	2b\
[2A\	[2f\	[2cc\
=19	=19	=19
2A\]	2f\]	2cc\]
2G\	1e	2b\
1F	.	1a
.	2d\	.
=20	=20	=20
1E	2e\	1g
.	2c\	.
2.D\	2.d\	2r
.	.	[2a/
4E\	4c\	.
=21	=21	=21
1F	1A	2a/]
.	.	4g/
.	.	4f/
2.G\	2r	2.e/
.	[2G/	.
4A\	.	4f/
=22	=22	=22
2B-i\	2G/]	2g/
2A\	2D/	1a
1B-i	1G	.
.	.	2g/
=23	=23	=23
1A	0F	1a
2c\	.	1r
2A\	.	.
=24	=24	=24
1B	2E/	1g
.	2G/	.
1c	2F/	1a
.	2A/	.
=25	=25	=25
1d	2G/	1b
.	2D/	.
1B	2G/	1g
.	2E/	.
=26	=26	=26
1A	1F	1a
2B\	1E	1g
2c\	.	.
=27	=27	=27
2d\	1D	2f/
1d	.	4e/
.	.	4d/
.	1A	1e
2c#i\	.	.
=28	=28	=28
1d	2B\	1d
.	2G/	.
2.G\	2.B\	2.e/
4A\	4c\	4f/
=29	=29	=29
2B\	2d\	2g/
1c	1e	1a
2B\	2d\	2g/
=30	=30	=30
2G\	2B\	2e/
1A	1c	1f
2G\	[2B\	[2e/
=31	=31	=31
1F	2B\]	2e/]
.	2A/	2d/
1El	1Bl	1el
=32||	=32||	=32||
*>B	*>B	*>B
!!section: Hic nempe mundi
!!!OMD: Hic nempe mundi
0r	1E	0r
.	1F	.
=33	=33	=33
0r	1E	1e
.	1D	1f
=34	=34	=34
1E	1G	1e
1F	2A/	1d
.	[2d\	.
=35	=35	=35
1E	2d\]	1g
.	2c\	.
1D	[1d	1a
=36	=36	=36
1G	2d\]	1b
.	4c\	.
.	4B\	.
2A\	2A/	2cc\
2B\	2G/	[2b\
=37	=37	=37
2c\	2A/	4b\]
.	.	4a/
2d\	2D/	1a
1B	1E	.
.	.	2g#i/
=38	=38	=38
0A	1e	1a
.	1f	1r
=39	=39	=39
0r	1d	1b
.	2c\	[1cc
.	[2A/	.
=40	=40	=40
0r	4A/]	2cc\]
.	4G/	.
.	1G	2b\
.	.	1a
.	2F#i/	.
=41	=41	=41
1B	1G	0g
1c	2r	.
.	[2g\	.
=42	=42	=42
1A	2g\]	1a
.	2f\	.
1G	2g\	1b
.	[2G/	.
=43	=43	=43
1A	2G/]	1cc
.	2F/	.
1B	1G	2b\
.	.	[2g/
=44	=44	=44
1c	2C/	2g/]
.	2F/	2.a/
2B\	2G/	.
.	.	4g/
2G\	2E/	[2g/
=45	=45	=45
1A	1D	2g/]
.	.	2f#i/
[1G	1d	1g
=46	=46	=46
1G]	1.e	1r
1r	.	1g
.	2d\	.
=47	=47	=47
1r	1c	2a/
.	.	1cc
1G	1d	.
.	.	2b\
=48	=48	=48
2A\	2c\	1a
1c	2.e\	.
.	.	1g
.	4d\	.
2G\	[2g\	.
=49	=49	=49
1A	2g\]	1r
.	2f#i\	.
[1G	2g\	1b
.	[2d\	.
=50	=50	=50
1G]	4d\]	2.g/
.	4c\	.
.	1B	.
.	.	4a/
1r	.	2b\
.	4A/	2cc\
.	4G/	.
=51	=51	=51
1r	2.F#i/	1a
.	4E/	.
1B	2G/	1g
.	[2d\	.
=52	=52	=52
2.G\	2d\]	0r
.	2e\	.
4A\	.	.
2B\	2d\	.
2c\	[2g\	.
=53	=53	=53
1A	2g\]	1r
.	2f#i\	.
1G	2g\	1b
.	[2d\	.
=54	=54	=54
1E	2d\]	1g
.	2c\	.
2D\	2d\	1a
2F\	2A/	.
=55	=55	=55
2G\	2B\	2g/
2A\	2c\	2.f/
1D	2B\	.
.	.	4e/
.	[2A/	[2d/
=56	=56	=56
1E	2A/]	2d/]
.	2G/	2c#i/
[1D	1A	1d
=57	=57	=57
1D]	1B	1r
1r	1c	1e
=58	=58	=58
1r	2d\	2f/
.	2.e\	1g
1E	.	.
.	4d\	.
.	4c\	4f/
.	4B\	4e/
=59	=59	=59
2F\	2A/	1d
1G	2.B\	.
.	.	1g
.	4c\	.
4F\	[2d\	.
4E\	.	.
=60	=60	=60
1D	4d\]	2a/
.	4A/	.
.	2d\	2f/
2E\	2c\	2g/
2G\	[2B\	[2e/
=61	=61	=61
1F	2B\]	2e/]
.	2A/	2d/
1El	1Bl	1el
==	==	==
*-	*-	*-
!!!RDF**kern: l=long note in original notation
!!!RDF**kern: i=editorial accidental
!!!ENC:	Chris Gage 08-15-2014
!!!END:	2014/10/05/
!!!EED:	Jesse Rodin
!!!EEV:	2014/10/17/
!!!ONB:	Translated from MusicXML and edited on 2014/10/17/ by Craig Sapp
!!muse2ps: C^@{COM}^i2I150v85,85,150Q16
